src/icon/qr_scan.svg

<svg fill="none" height="25" viewBox="0 0 24 25" width="24" xmlns="http://www.w3.org/2000/svg"><rect height="8" rx="1" stroke="#0085fb" stroke-width="1.3" width="8" x="2.5" y="3.25"/><circle cx="6.5" cy="7.25" fill="#0085fb" r=".94709"/><rect height="8" rx="1" stroke="#0085fb" stroke-width="1.3" width="8" x="13.5" y="3.25"/><circle cx="17.5" cy="7.25" fill="#0085fb" r=".94709"/><rect height="8" rx="1" stroke="#0085fb" stroke-width="1.3" width="8" x="2.5" y="14.25"/><g fill="#0085fb"><circle cx="6.5" cy="18.25" r=".94709"/><path d="m18.2857 14.9c.359 0 .65-.291.65-.65s-.291-.65-.65-.65zm1.8393-1.3c-.359 0-.65.291-.65.65s.291.65.65.65zm-3.1071 9.3c.3589 0 .65-.291.65-.65s-.2911-.65-.65-.65zm2.4821-1.3c-.359 0-.65.291-.65.65s.291.65.65.65zm1.35-3.35c0 .359.291.65.65.65s.65-.291.65-.65zm1.3 2c0-.359-.291-.65-.65-.65s-.65.291-.65.65zm-5.65 1.35c-.359 0-.65.291-.65.65s.291.65.65.65zm-1.8214 1.3c.359 0 .65-.291.65-.65s-.291-.65-.65-.65zm-.5286-1.65v-6h-1.3v6zm.35-6.35h3v-1.3h-3zm5.8571 0h.1429v-1.3h-.1429zm-2.8571 0h.7857v-1.3h-.7857zm2.8571-1.3h-.2321v1.3h.2321zm.1429 8h-1v1.3h1zm.35-6.35v3h1.3v-3zm0 5v1h1.3v-1zm-3.8321 1.35h-.5179v1.3h.5179zm-2.5179 1.3h.1786v-1.3h-.1786zm-1.65-1.65c0 .9113.7387 1.65 1.65 1.65v-1.3c-.1933 0-.35-.1567-.35-.35zm7.65 1.65c.9113 0 1.65-.7387 1.65-1.65h-1.3c0 .1933-.1567.35-.35.35zm0-8c.1933 0 .35.1567.35.35h1.3c0-.9113-.7387-1.65-1.65-1.65zm-6.35.35c0-.1933.1567-.35.35-.35v-1.3c-.9113 0-1.65.7387-1.65 1.65z"/><rect height="3.21429" rx=".5" width="3.21429" x="15.8929" y="16.6429"/></g></svg>

<svg width="24" height="25" viewBox="0 0 24 25" fill="none" xmlns="http://www.w3.org/2000/svg">
<rect x="2.5" y="3.25" width="8" height="8" rx="1" stroke="#0085FB" stroke-width="1.3"/>
<circle cx="6.5" cy="7.25" r="0.94709" fill="#0085FB"/>
<rect x="13.5" y="3.25" width="8" height="8" rx="1" stroke="#0085FB" stroke-width="1.3"/>
<circle cx="17.5" cy="7.25" r="0.94709" fill="#0085FB"/>
<rect x="2.5" y="14.25" width="8" height="8" rx="1" stroke="#0085FB" stroke-width="1.3"/>
<circle cx="6.5" cy="18.25" r="0.94709" fill="#0085FB"/>
<path d="M18.2857 14.9C18.6447 14.9 18.9357 14.609 18.9357 14.25C18.9357 13.891 18.6447 13.6 18.2857 13.6V14.9ZM20.125 13.6C19.766 13.6 19.475 13.891 19.475 14.25C19.475 14.609 19.766 14.9 20.125 14.9V13.6ZM17.0179 22.9C17.3768 22.9 17.6679 22.609 17.6679 22.25C17.6679 21.891 17.3768 21.6 17.0179 21.6V22.9ZM19.5 21.6C19.141 21.6 18.85 21.891 18.85 22.25C18.85 22.609 19.141 22.9 19.5 22.9V21.6ZM20.85 18.25C20.85 18.609 21.141 18.9 21.5 18.9C21.859 18.9 22.15 18.609 22.15 18.25H20.85ZM22.15 20.25C22.15 19.891 21.859 19.6 21.5 19.6C21.141 19.6 20.85 19.891 20.85 20.25H22.15ZM16.5 21.6C16.141 21.6 15.85 21.891 15.85 22.25C15.85 22.609 16.141 22.9 16.5 22.9V21.6ZM14.6786 22.9C15.0376 22.9 15.3286 22.609 15.3286 22.25C15.3286 21.891 15.0376 21.6 14.6786 21.6V22.9ZM14.15 21.25V15.25H12.85V21.25H14.15ZM14.5 14.9H17.5V13.6H14.5V14.9ZM20.3571 14.9H20.5V13.6H20.3571V14.9ZM17.5 14.9H18.2857V13.6H17.5V14.9ZM20.3571 13.6H20.125V14.9H20.3571V13.6ZM20.5 21.6H19.5V22.9H20.5V21.6ZM20.85 15.25V18.25H22.15V15.25H20.85ZM20.85 20.25V21.25H22.15V20.25H20.85ZM17.0179 21.6H16.5V22.9H17.0179V21.6ZM14.5 22.9H14.6786V21.6H14.5V22.9ZM12.85 21.25C12.85 22.1613 13.5887 22.9 14.5 22.9V21.6C14.3067 21.6 14.15 21.4433 14.15 21.25H12.85ZM20.5 22.9C21.4113 22.9 22.15 22.1613 22.15 21.25H20.85C20.85 21.4433 20.6933 21.6 20.5 21.6V22.9ZM20.5 14.9C20.6933 14.9 20.85 15.0567 20.85 15.25H22.15C22.15 14.3387 21.4113 13.6 20.5 13.6V14.9ZM14.15 15.25C14.15 15.0567 14.3067 14.9 14.5 14.9V13.6C13.5887 13.6 12.85 14.3387 12.85 15.25H14.15Z" fill="#0085FB"/>
<rect x="15.8929" y="16.6429" width="3.21429" height="3.21429" rx="0.5" fill="#0085FB"/>
</svg>
